Sources/FrostedUI/Resources/Icons.xcassets/starFilled16.imageset/star-filled-16.svg

<svg width="17" height="16" viewBox="0 0 17 16" fill="none" xmlns="http://www.w3.org/2000/svg" data-fui-icon="true">
  <path
    d="M6.27954 1.47949C7.04719 0.17374 8.96901 0.173643 9.73657 1.47949L9.80981 1.61426L11.1497 4.3291L14.2571 4.72559C15.873 4.93176 16.6666 6.96526 15.3635 8.16113L13.1233 10.2148L13.6838 13.1367C14.019 14.8858 12.1616 15.9944 10.7756 15.2676V15.2686L8.00806 13.8164L5.24048 15.2686C3.85464 15.995 1.99711 14.886 2.33228 13.1367L2.89185 10.2148L0.652588 8.16113C-0.650812 6.96519 0.142897 4.93158 1.75903 4.72559L4.86548 4.3291L6.2063 1.61426L6.27954 1.47949ZM14.0667 6.21387C14.1046 6.2187 14.1404 6.22862 14.1741 6.24023C14.164 6.23678 14.1542 6.23238 14.1438 6.22949L14.0676 6.21387L10.4338 5.75098L14.0667 6.21387ZM8.24048 2.05469C8.33266 2.10042 8.41271 2.1745 8.46411 2.27832H8.46509C8.43069 2.20872 8.3835 2.15191 8.32837 2.1084C8.31004 2.09391 8.29066 2.08094 8.27075 2.06934C8.26103 2.06368 8.25054 2.05961 8.24048 2.05469ZM8.23657 2.05273C8.20656 2.03838 8.17578 2.026 8.1438 2.01758C8.17576 2.02602 8.20664 2.03821 8.23657 2.05273Z"
    fill="currentColor"
  />
</svg>

<svg xmlns="http://www.w3.org/2000/svg" width="17" height="16" fill="none" data-fui-icon="true" viewBox="0 0 17 16"><path fill="currentColor" d="M6.28 1.48c.767-1.306 2.689-1.306 3.457 0l.073.134 1.34 2.715 3.107.397c1.616.206 2.41 2.24 1.107 3.435l-2.24 2.054.56 2.922c.335 1.749-1.522 2.857-2.908 2.13v.002l-2.768-1.453L5.24 15.27c-1.385.726-3.243-.383-2.908-2.132l.56-2.922L.652 8.16C-.65 6.965.143 4.931 1.76 4.726l3.106-.397 1.341-2.715zm7.787 4.734a.5.5 0 0 1 .107.026q-.015-.006-.03-.01zl-3.634-.463zM8.24 2.054a.5.5 0 0 1 .224.224h.001a.5.5 0 0 0-.194-.209zm-.003-.001"/></svg>
